src/22/panel/keepassx-indicator.svg

<svg xmlns="http://www.w3.org/2000/svg" width="22" height="22" version="1">
 <defs>
  <style id="current-color-scheme" type="text/css">
   .ColorScheme-Text { color:#dfdfdf; } .ColorScheme-Highlight { color:#4285f4; }
  </style>
 </defs>
 <path style="fill:currentColor" class="ColorScheme-Text" d="m15 2.9996c-2.2091 0-4 1.7909-4 4 0.002 0.71351 0.19491 1.4135 0.55859 2.0273l-2.6074 2.6074-1.416 1.4141-4.2422 4.2422c-0.39174 0.39174-0.39174 1.0243 0 1.416 0.39174 0.39174 1.0243 0.39174 1.416 0l0.70703-0.70703h1.584v-1.584l0.41602-0.41602h1.584v-1.4863l1.3652-1.4648 2.6074-2.6074c0.61387 0.36368 1.3138 0.55654 2.0273 0.55859 2.2091 0 4-1.7909 4-4s-1.7909-4-4-4zm1 2c0.55228 0 1 0.44772 1 1s-0.44772 1-1 1-1-0.44772-1-1 0.44772-1 1-1z"/>
 <path opacity=".3" style="fill:currentColor" class="ColorScheme-Text" d="m4 7.0996c-0.2556 0-0.5112 0.0971-0.707 0.293-0.3918 0.3917-0.3918 1.0223 0 1.414l4.2422 4.2424 1.416-1.414-4.2422-4.2424c-0.1959-0.1959-0.4534-0.293-0.709-0.293zm6.365 5.9494l-1.365 1.465 4.193 4.193c0.392 0.392 1.023 0.392 1.414 0 0.392-0.392 0.392-1.024 0-1.416l-4.242-4.242z"/>
</svg>

<svg xmlns="http://www.w3.org/2000/svg" width="22" height="22" version="1"><defs><style id="current-color-scheme" type="text/css">.ColorScheme-Text{color:#bebebe}</style></defs><path class="ColorScheme-Text" d="M15 3a4 4 0 0 0-4 4 4 4 0 0 0 .559 2.027L8.95 11.634l-1.416 1.414-4.242 4.243a1 1 0 0 0 0 1.416 1 1 0 0 0 1.416 0L5.416 18H7v-1.584L7.416 16H9v-1.487l1.365-1.465 2.608-2.607A4 4 0 0 0 15 11a4 4 0 0 0 0-8zm1 2a1 1 0 1 1 0 2 1 1 0 0 1 0-2z" fill="currentColor"/><path opacity=".3" class="ColorScheme-Text" d="M4 7.1a.996.996 0 0 0-.707.293.997.997 0 0 0 0 1.414l4.242 4.242 1.416-1.414L4.71 7.393A1 1 0 0 0 4 7.1zm6.365 5.949L9 14.514l4.193 4.193a.997.997 0 0 0 1.414 0 1 1 0 0 0 0-1.416l-4.242-4.242z" fill="currentColor"/></svg>
